icons/bag-person.svg

<svg xmlns="http://www.w3.org/2000/svg" width="24" height="24" viewBox="0 0 24 24">
  <path d="M14,2 C15.5976809,2 16.9036609,3.24891996 16.9949073,4.82372721 L17,5 L17,6 L20,6 C21.1045695,6 22,6.8954305 22,8 L22,20 C22,21.1045695 21.1045695,22 20,22 L4,22 C2.8954305,22 2,21.1045695 2,20 L2,8 C2,6.8954305 2.8954305,6 4,6 L7,6 L7,5 C7,3.40231912 8.24891996,2.09633912 9.82372721,2.00509269 L10,2 L14,2 Z M13,15 L11,15 L10.8151403,15.0049586 C9.41840278,15.0804956 8.5,16.0076133 8.5,17 C8.5,17.5 8.5,18 9.5,18 L9.5,18 L14.5,18 L14.6575789,17.9954561 C15.5,17.9444444 15.5,17.4722222 15.5,17 C15.5,15.9644661 14.5,15 13,15 L13,15 Z M12,10 C10.8954305,10 10,10.8954305 10,12 C10,13.1045695 10.8954305,14 12,14 C13.1045695,14 14,13.1045695 14,12 C14,10.8954305 13.1045695,10 12,10 Z M14,4 L10,4 C9.48716416,4 9.06449284,4.38604019 9.00672773,4.88337887 L9,5 L9,6 L15,6 L15,5 C15,4.48716416 14.6139598,4.06449284 14.1166211,4.00672773 L14,4 Z"/>
</svg>

<svg xmlns="http://www.w3.org/2000/svg" viewBox="0 0 24 24">
  <path d="M14 2a3 3 0 0 1 3 2.82V6h3a2 2 0 0 1 2 2v12a2 2 0 0 1-2 2H4a2 2 0 0 1-2-2V8c0-1.1.9-2 2-2h3V5a3 3 0 0 1 2.82-3H14zm-1 13h-2.18c-1.4.08-2.32 1-2.32 2 0 .5 0 1 1 1h5.16c.84-.06.84-.53.84-1 0-1.04-1-2-2.5-2zm-1-5a2 2 0 1 0 0 4 2 2 0 0 0 0-4zm2-6h-4a1 1 0 0 0-1 .88V6h6V5a1 1 0 0 0-.88-1H14z"/>
</svg>
